X:430
T: "Die harrende Braut"
N: Z1110
O: Europa, Mitteleuropa, Deutschland, Rhein
R: Romanze, Ballade, verlassene Liebe
M: 4/4
L: 1/8
K: F
FG | A2A2A2cB | A2A2A2
GA | B2B2B2cB | A4z2
GA | B2BBBdcB | A2A2A2
GA | B2B2BdcB | A2A2A2
cB | A2cBA2cB | A2z4
BA | G2BAG2BA | G2z4
FA | c2cccfed | c2cBA2
GA | B2B2c2BA | G4z2
AG | F6GA | A2B2A2G2 | F4z2

@@@ Tune index: 10188
